packages/icon/src/images/social/social-instagram2-circle.svg

<svg width="56" height="56" viewBox="0 0 56 56" fill="none" xmlns="http://www.w3.org/2000/svg">
<path fill-rule="evenodd" clip-rule="evenodd" d="M28 56C43.464 56 56 43.464 56 28C56 12.536 43.464 0 28 0C12.536 0 0 12.536 0 28C0 43.464 12.536 56 28 56ZM10 20.3918C10 14.6525 14.6525 10 20.3918 10H35.6082C41.3475 10 46 14.6525 46 20.3918V35.6082C46 41.3475 41.3475 46 35.6082 46H20.3918C14.6525 46 10 41.3475 10 35.6082V20.3918ZM34.568 28.5454C34.568 31.9596 31.6273 34.7273 27.9998 34.7273C24.3723 34.7273 21.4316 31.9596 21.4316 28.5454C21.4316 25.1313 24.3723 22.3636 27.9998 22.3636C31.6273 22.3636 34.568 25.1313 34.568 28.5454ZM37.2725 28.5454C37.2725 33.3654 33.121 37.2727 27.9998 37.2727C22.8786 37.2727 18.7271 33.3654 18.7271 28.5454C18.7271 23.7255 22.8786 19.8182 27.9998 19.8182C33.121 19.8182 37.2725 23.7255 37.2725 28.5454ZM40.5453 18.7273C40.5453 19.9323 39.5684 20.9091 38.3635 20.9091C37.1585 20.9091 36.1816 19.9323 36.1816 18.7273C36.1816 17.5223 37.1585 16.5455 38.3635 16.5455C39.5684 16.5455 40.5453 17.5223 40.5453 18.7273Z" fill="#51247A"/>
</svg>

<svg xmlns="http://www.w3.org/2000/svg" viewBox="0 0 56 56" style="enable-background:new 0 0 56 56" xml:space="preserve"><path d="M28 56c15.5 0 28-12.5 28-28S43.5 0 28 0 0 12.5 0 28s12.5 28 28 28zM10 20.4C10 14.7 14.7 10 20.4 10h15.2C41.3 10 46 14.7 46 20.4v15.2C46 41.3 41.3 46 35.6 46H20.4C14.7 46 10 41.3 10 35.6V20.4zm24.6 8.1c0 3.4-2.9 6.2-6.6 6.2s-6.6-2.8-6.6-6.2c0-3.4 2.9-6.2 6.6-6.2s6.6 2.8 6.6 6.2zm2.7 0c0 4.8-4.2 8.7-9.3 8.7s-9.3-3.9-9.3-8.7c0-4.8 4.2-8.7 9.3-8.7s9.3 3.9 9.3 8.7zm3.2-9.8c0 1.2-1 2.2-2.2 2.2-1.2 0-2.2-1-2.2-2.2s1-2.2 2.2-2.2c1.3 0 2.2 1 2.2 2.2z" style="fill-rule:evenodd;clip-rule:evenodd"/></svg>
